arrow-oscillating.svg

<svg fill="currentColor" viewBox="0 0 24 24"><path d="M6 14h3l-4 4-4-4h3c0-2.7 1.7-7.4 7-7.9v2c-3.4.5-5 3.8-5 5.9m14 0c0-2.7-1.7-7.4-7-7.9v2c3.4.6 5 3.8 5 5.9h-3l4 4 4-4z"/></svg>

<svg  viewBox="0 0 24 24" fill="currentColor"><path  d="M6 14H9L5 18L1 14H4C4 11.3 5.7 6.6 11 6.1V8.1C7.6 8.6 6 11.9 6 14M20 14C20 11.3 18.3 6.6 13 6.1V8.1C16.4 8.7 18 11.9 18 14H15L19 18L23 14H20Z"/></svg>
